svg/fluentui-system-icons/ic_fluent_vehicle_car_collision_32_regular.svg

<svg width="32" height="32" viewBox="0 0 32 32" fill="none" xmlns="http://www.w3.org/2000/svg">
<path d="M16.72 3.30606C16.437 3.01243 16.004 2.92008 15.6258 3.07267C15.2476 3.22526 15 3.59222 15 4.00003V9.00003C15 9.55232 15.4477 10 16 10C16.5523 10 17 9.55232 17 9.00003V6.47851L19.28 8.84401C19.6365 9.21384 20.2151 9.25346 20.6187 8.93567L21.9954 7.85149L21.0513 10.6838C20.9497 10.9888 21.0008 11.324 21.1888 11.5847C21.3767 11.8455 21.6786 12 22 12H25L23.2 14.4C22.8759 14.8321 22.9535 15.4435 23.3753 15.7809L26.1492 18H24C23.4477 18 23 18.4477 23 19C23 19.5523 23.4477 20 24 20H29C29.4247 20 29.8031 19.7318 29.9436 19.331C30.0842 18.9303 29.9563 18.4845 29.6247 18.2192L25.3815 14.8246L27.8 11.6C28.0273 11.297 28.0638 10.8916 27.8944 10.5528C27.725 10.214 27.3788 10 27 10H23.3874L24.9487 5.31626C25.0884 4.89715 24.9365 4.43603 24.5751 4.18196C24.2137 3.92788 23.7284 3.94107 23.3813 4.2144L20.0921 6.80463L16.72 3.30606ZM17 23C17.5523 23 18 22.5523 18 22C18 21.4477 17.5523 21 17 21C16.4477 21 16 21.4477 16 22C16 22.5523 16.4477 23 17 23ZM7 22C7 22.5523 6.55228 23 6 23C5.44772 23 5 22.5523 5 22C5 21.4477 5.44772 21 6 21C6.55228 21 7 21.4477 7 22ZM9.75 22C9.19772 22 8.75 22.4477 8.75 23C8.75 23.5523 9.19772 24 9.75 24H13.25C13.8023 24 14.25 23.5523 14.25 23C14.25 22.4477 13.8023 22 13.25 22H9.75ZM20 18H18.938C20.1677 18.6824 21 19.994 21 21.5V27.5C21 28.8807 19.8807 30 18.5 30H17C15.6193 30 14.5 28.8807 14.5 27.5V26.5H8.5V27.5C8.5 28.8807 7.38071 30 6 30H4.5C3.11929 30 2 28.8807 2 27.5V21.5C2 19.994 2.83229 18.6824 4.062 18H3C2.44772 18 2 17.5523 2 17C2 16.4477 2.44772 16 3 16H4.48621L4.70026 14.7157C4.96144 13.1486 6.31731 12 7.90604 12H15.094C16.6827 12 18.0386 13.1486 18.2997 14.7157L18.5138 16H20C20.5523 16 21 16.4477 21 17C21 17.5523 20.5523 18 20 18ZM6.67304 15.0445L6.26379 17.5H16.7362L16.327 15.0445C16.2265 14.4418 15.705 14 15.094 14H7.90604C7.29499 14 6.7735 14.4418 6.67304 15.0445ZM16.5 26.5V27.5C16.5 27.7762 16.7239 28 17 28H18.5C18.7761 28 19 27.7762 19 27.5V26.5H16.5ZM4 26.5V27.5C4 27.7762 4.22386 28 4.5 28H6C6.27614 28 6.5 27.7762 6.5 27.5V26.5H4ZM6 19.5C4.89543 19.5 4 20.3955 4 21.5V24.5H19V21.5C19 20.3955 18.1046 19.5 17 19.5H6Z" fill="#212121"/>
</svg>

<svg xmlns="http://www.w3.org/2000/svg" width="32" height="32"><path d="M16.72 3.306A1 1 0 0 0 15 4v5a1 1 0 1 0 2 0V6.479l2.28 2.365a1 1 0 0 0 1.339.092l1.376-1.085-.944 2.833A1 1 0 0 0 22 12h3l-1.8 2.4a1 1 0 0 0 .175 1.38L26.15 18H24a1 1 0 1 0 0 2h5a1 1 0 0 0 .625-1.78l-4.244-3.395L27.8 11.6A1 1 0 0 0 27 10h-3.613l1.562-4.684a1 1 0 0 0-1.568-1.102l-3.289 2.59-3.372-3.498ZM17 23a1 1 0 1 0 0-2 1 1 0 0 0 0 2ZM7 22a1 1 0 1 1-2 0 1 1 0 0 1 2 0Zm2.75 0a1 1 0 1 0 0 2h3.5a1 1 0 1 0 0-2h-3.5ZM20 18h-1.062A3.999 3.999 0 0 1 21 21.5v6a2.5 2.5 0 0 1-2.5 2.5H17a2.5 2.5 0 0 1-2.5-2.5v-1h-6v1A2.5 2.5 0 0 1 6 30H4.5A2.5 2.5 0 0 1 2 27.5v-6c0-1.506.832-2.818 2.062-3.5H3a1 1 0 1 1 0-2h1.486l.214-1.284A3.25 3.25 0 0 1 7.906 12h7.188a3.25 3.25 0 0 1 3.206 2.716L18.514 16H20a1 1 0 1 1 0 2ZM6.673 15.044l-.41 2.456h10.473l-.409-2.456A1.25 1.25 0 0 0 15.094 14H7.906a1.25 1.25 0 0 0-1.233 1.044ZM16.5 26.5v1a.5.5 0 0 0 .5.5h1.5a.5.5 0 0 0 .5-.5v-1h-2.5ZM4 26.5v1a.5.5 0 0 0 .5.5H6a.5.5 0 0 0 .5-.5v-1H4Zm2-7a2 2 0 0 0-2 2v3h15v-3a2 2 0 0 0-2-2H6Z"/></svg>
